admin/src/theme/img/safetyequipment/8.svg

<svg width="32" height="32" viewBox="0 0 32 32" xmlns="http://www.w3.org/2000/svg">
  <g fill="none" fill-rule="evenodd">
    <path d="M0 0h32v32H0z"/>
    <path d="M20.4133333 12.0133333h-8.8266666L16 4.4l4.4133333 7.6133333ZM16 27.8133333c-.5866667 0-1.08.2-1.48.6133334-.4.4133333-.6133333.9066666-.6133333 1.48 0 .5733333.2 1.08.6133333 1.48.4133333.4.9066667.6133333 1.48.6133333.5733333 0 1.04-.2 1.4666667-.6133333.4266666-.4133334.6266666-.9066667.6266666-1.48 0-.5733334-.2133333-1.08-.6266666-1.48-.4133334-.4-.9066667-.6133334-1.4666667-.6133334Zm0 .5733334c-1.0133333 0-1.52.5066666-1.52 1.52 0 1.0133333.5066667 1.52 1.52 1.52s1.52-.5066667 1.52-1.52c0-1.0133334-.5066667-1.52-1.52-1.52Zm-.5733333-16.36v15.8h1.1466666V12.0133333h-1.1466666v.0133334ZM16 29.3466667c.3866667 0 .5733333.1866666.5733333.5733333 0 .3866667-.1866666.5733333-.5733333.5733333-.3866667 0-.5733333-.1866666-.5733333-.5733333 0-.3866667.1866666-.5733333.5733333-.5733333Z" fill="#EC0E0E" fill-rule="nonzero"/>
  </g>
</svg>

<?xml version="1.0" encoding="UTF-8"?>
<svg width="32px" height="32px" viewBox="0 0 32 32" version="1.1" xmlns="http://www.w3.org/2000/svg" xmlns:xlink="http://www.w3.org/1999/xlink">
    <title>5C64AD6E-844F-4465-82AD-129751989746</title>
    <g id="Squat-laskuri" stroke="none" stroke-width="1" fill="none" fill-rule="evenodd">
        <g id="colors_and_typography" transform="translate(-1054.000000, -1098.000000)">
            <g id="turvalaite_ikonit" transform="translate(718.000000, 906.000000)">
                <g id="Asset-57" transform="translate(336.000000, 192.000000)">
                    <rect id="Rectangle" x="0" y="0" width="32" height="32"></rect>
                    <path d="M20.4133333,12.0133333 L11.5866667,12.0133333 L16,4.4 L20.4133333,12.0133333 L20.4133333,12.0133333 Z M16,27.8133333 C15.4133333,27.8133333 14.92,28.0133333 14.52,28.4266667 C14.12,28.84 13.9066667,29.3333333 13.9066667,29.9066667 C13.9066667,30.48 14.1066667,30.9866667 14.52,31.3866667 C14.9333333,31.7866667 15.4266667,32 16,32 C16.5733333,32 17.04,31.8 17.4666667,31.3866667 C17.8933333,30.9733333 18.0933333,30.48 18.0933333,29.9066667 C18.0933333,29.3333333 17.88,28.8266667 17.4666667,28.4266667 C17.0533333,28.0266667 16.56,27.8133333 16,27.8133333 Z M16,28.3866667 C14.9866667,28.3866667 14.48,28.8933333 14.48,29.9066667 C14.48,30.92 14.9866667,31.4266667 16,31.4266667 C17.0133333,31.4266667 17.52,30.92 17.52,29.9066667 C17.52,28.8933333 17.0133333,28.3866667 16,28.3866667 Z M15.4266667,12.0266667 L15.4266667,27.8266667 L16.5733333,27.8266667 L16.5733333,12.0133333 L15.4266667,12.0133333 L15.4266667,12.0266667 Z M16,29.3466667 C16.3866667,29.3466667 16.5733333,29.5333333 16.5733333,29.92 C16.5733333,30.3066667 16.3866667,30.4933333 16,30.4933333 C15.6133333,30.4933333 15.4266667,30.3066667 15.4266667,29.92 C15.4266667,29.5333333 15.6133333,29.3466667 16,29.3466667 Z" id="Shape" fill="#EC0E0E" fill-rule="nonzero"></path>
                </g>
            </g>
        </g>
    </g>
</svg>
